images/icon/feature/antenna.svg

<svg width="74" height="78" viewBox="0 0 74 78" fill="none" xmlns="http://www.w3.org/2000/svg">
<g filter="url(#filter0_d_1_333)">
<path d="M69.3163 48.3385L50.8468 29.7337L52.8966 19.6373C53.4256 19.8438 53.9879 19.9517 54.5556 19.9558H54.5696C57.1777 19.9866 59.3169 17.8974 59.3479 15.2893C59.3788 12.6812 57.2894 10.542 54.6813 10.5111C52.0732 10.4803 49.934 12.5695 49.9031 15.1776C49.8965 15.7357 49.9888 16.2905 50.176 16.8163L39.326 18.1405L21.6276 0.35C21.4105 0.128479 21.1141 0.00247917 20.804 0C20.4977 0.00160417 20.2044 0.123521 19.9873 0.3395L16.6786 3.6295C16.2232 4.08508 16.2232 4.82358 16.6786 5.27917L18.459 7.08517C11.5616 19.7681 13.8019 35.4741 23.9703 45.7228C24.0636 45.8121 24.1718 45.8843 24.29 45.9363C24.2165 46.3311 24.1781 46.7317 24.1756 47.1333V60.6667H10.1756C6.95562 60.6705 4.34608 63.28 4.34229 66.5V68.8333C4.34229 69.4776 4.86466 70 5.50895 70H59.1756C59.8199 70 60.3423 69.4776 60.3423 68.8333V66.5C60.3385 63.28 57.729 60.6705 54.509 60.6667H40.509V54.6688C42.7021 55.1288 44.9367 55.3633 47.1776 55.3688C52.5548 55.363 57.8464 54.0225 62.5776 51.4675L64.3673 53.2677C64.5844 53.4892 64.8808 53.6152 65.191 53.6177C65.4972 53.6161 65.7905 53.4941 66.0076 53.2782L69.3163 49.9882C69.7717 49.5326 69.7717 48.7941 69.3163 48.3385ZM52.9246 13.6348C53.8383 12.726 55.3157 12.7301 56.2244 13.6437C57.1332 14.5574 57.1291 16.0348 56.2155 16.9435C55.7781 17.3785 55.1864 17.6226 54.5695 17.6225H54.5625C53.2739 17.6158 52.2345 16.5658 52.2412 15.2771C52.2445 14.6602 52.4918 14.0699 52.9291 13.6348H52.9246ZM50.1783 21.301L48.8693 27.7445L46.298 25.158L50.1783 21.301ZM48.853 19.3282L44.653 23.5037L41.4038 20.237L48.853 19.3282ZM54.509 63C56.442 63 58.009 64.567 58.009 66.5V67.6667H6.67562V66.5C6.67562 64.567 8.2426 63 10.1756 63H54.509ZM38.1756 58.3333V60.6667H26.509V58.3333H38.1756ZM26.509 56V47.1333C26.509 44.303 29.1258 42 32.3423 42C35.5588 42 38.1756 44.303 38.1756 47.1333V56H26.509ZM40.509 52.29V47.1333C40.509 43.0162 36.8456 39.6667 32.3423 39.6667C29.4306 39.622 26.7079 41.1041 25.165 43.5738C16.2887 34.2249 14.2899 20.2875 20.1805 8.82073L60.872 49.7455C54.5886 52.9419 47.3857 53.8418 40.509 52.29ZM65.2038 50.7943L63.56 49.1412L20.7923 6.11567L19.1415 4.46133L20.7923 2.81633L38.15 20.272C38.1581 20.272 38.1628 20.2872 38.171 20.293L66.8593 49.1493L65.2038 50.7943Z" fill="#212121"/>
<path d="M32.3528 44.3333H32.3423C30.4093 44.3304 28.84 45.895 28.837 47.8281C28.8341 49.7611 30.3988 51.3304 32.3318 51.3333H32.3423C34.2753 51.3362 35.8446 49.7716 35.8475 47.8386C35.8505 45.9055 34.2858 44.3362 32.3528 44.3333ZM33.1695 48.6605C32.9498 48.8789 32.6522 49.0012 32.3423 49C31.698 48.9966 31.1784 48.4716 31.1817 47.8273C31.1834 47.5189 31.307 47.2237 31.5256 47.0062C31.7428 46.7902 32.036 46.6683 32.3423 46.6667C32.9866 46.67 33.5062 47.195 33.5028 47.8393C33.5012 48.1477 33.3776 48.4429 33.159 48.6605H33.1695Z" fill="#2196F3"/>
</g>
<defs>
<filter id="filter0_d_1_333" x="-2" y="0" width="78" height="78" filterUnits="userSpaceOnUse" color-interpolation-filters="sRGB">
<feFlood flood-opacity="0" result="BackgroundImageFix"/>
<feColorMatrix in="SourceAlpha" type="matrix" values="0 0 0 0 0 0 0 0 0 0 0 0 0 0 0 0 0 0 127 0" result="hardAlpha"/>
<feOffset dy="4"/>
<feGaussianBlur stdDeviation="2"/>
<feComposite in2="hardAlpha" operator="out"/>
<feColorMatrix type="matrix" values="0 0 0 0 0 0 0 0 0 0 0 0 0 0 0 0 0 0 0.25 0"/>
<feBlend mode="normal" in2="BackgroundImageFix" result="effect1_dropShadow_1_333"/>
<feBlend mode="normal" in="SourceGraphic" in2="effect1_dropShadow_1_333" result="shape"/>
</filter>
</defs>
</svg>

<svg width="74" height="78" fill="none" xmlns="http://www.w3.org/2000/svg"><g filter="url(#a)"><path d="m69.316 48.339-18.47-18.605 2.05-10.097a4.655 4.655 0 0 0 1.66.319h.014a4.723 4.723 0 1 0-4.394-3.14l-10.85 1.325L21.628.35a1.166 1.166 0 0 0-.824-.35c-.306.002-.6.124-.817.34L16.68 3.63a1.167 1.167 0 0 0 0 1.65l1.78 1.805a32.686 32.686 0 0 0 5.511 38.638c.094.09.202.161.32.213a6.77 6.77 0 0 0-.114 1.197v13.534h-14A5.84 5.84 0 0 0 4.342 66.5v2.333c0 .645.523 1.167 1.167 1.167h53.667c.644 0 1.166-.522 1.166-1.167V66.5a5.84 5.84 0 0 0-5.833-5.833h-14v-5.998c2.193.46 4.428.694 6.669.7a32.483 32.483 0 0 0 15.4-3.901l1.79 1.8c.216.221.513.347.823.35.306-.002.6-.124.817-.34l3.308-3.29a1.167 1.167 0 0 0 0-1.65ZM52.925 13.635a2.333 2.333 0 1 1 1.645 3.987h-.008a2.333 2.333 0 0 1-1.633-3.987h-.004ZM50.178 21.3l-1.309 6.444-2.571-2.587 3.88-3.857Zm-1.325-1.973-4.2 4.176-3.25-3.267 7.45-.909ZM54.509 63a3.5 3.5 0 0 1 3.5 3.5v1.167H6.676V66.5a3.5 3.5 0 0 1 3.5-3.5h44.333Zm-16.333-4.667v2.334H26.509v-2.334h11.667ZM26.509 56v-8.867c0-2.83 2.617-5.133 5.833-5.133 3.217 0 5.834 2.303 5.834 5.133V56H26.509Zm14-3.71v-5.157c0-4.117-3.663-7.466-8.167-7.466a8.312 8.312 0 0 0-7.177 3.907A30.34 30.34 0 0 1 20.18 8.82l40.692 40.925a30.233 30.233 0 0 1-20.363 2.544Zm24.695-1.496-1.644-1.653L20.792 6.116l-1.65-1.655 1.65-1.645L38.15 20.272c.008 0 .013.015.021.021l28.688 28.856-1.655 1.645Z" fill="#212121"/><path d="M32.353 44.333h-.01a3.5 3.5 0 0 0-.011 7h.01a3.5 3.5 0 1 0 .01-7Zm.816 4.328a1.167 1.167 0 1 1-.827-1.994 1.166 1.166 0 0 1 .817 1.993h.01Z" fill="#2196F3"/></g><defs><filter id="a" x="-2" y="0" width="78" height="78" filterUnits="userSpaceOnUse" color-interpolation-filters="sRGB"><feFlood flood-opacity="0" result="BackgroundImageFix"/><feColorMatrix in="SourceAlpha" values="0 0 0 0 0 0 0 0 0 0 0 0 0 0 0 0 0 0 127 0" result="hardAlpha"/><feOffset dy="4"/><feGaussianBlur stdDeviation="2"/><feComposite in2="hardAlpha" operator="out"/><feColorMatrix values="0 0 0 0 0 0 0 0 0 0 0 0 0 0 0 0 0 0 0.25 0"/><feBlend in2="BackgroundImageFix" result="effect1_dropShadow_1_333"/><feBlend in="SourceGraphic" in2="effect1_dropShadow_1_333" result="shape"/></filter></defs></svg>
